X:1
T:Blessed Saviour, 11.11.11.11
T:Blessed Saviour, 11.11.11.11
T:John Ebenezer West, 1910
T:Public Domain Courtesy of the Cyber Hymnal™
C:John Ebenezer West, 1910
Z:Public Domain
Z:Courtesy of the Cyber Hymnal™
%%score ( 1 2 ) ( 3 4 )
L:1/8
Q:1/4=115
M:4/4
K:C
V:1 treble 
V:2 treble 
V:3 bass 
V:4 bass 
V:1
 [CE]2 C2 [CE]2 [CF]2 | [DG]4 G4 | [FA]2 F2 [FA]2 [FB]2 | c8 | [Ec]2 [DA]2 [DB]2 [DG]2 | %5
 (G2 A2) (B2 c2) | [Gd]2 G2 [EG]2 [D^F]2 | [DG]8 x2 | G2 A2 [^CG-_B]2 [DGB]2 | A4 [^CE]4 | %10
 A2 B2 [^Dc]2 [Ec]2 | (^F2 E2) [^DF]4 | [EB]2 [DG]2 [GA]2 [FB]2 | [Ec]4 [Ac]4 | %14
 [Ae]2 [Ad]2 [Gc]2 [FB]2 | [Ec]8 |] %16
V:2
 x2 C2 x4 | x4 (D2 E2) | x2 F2 x4 | (F4 E4) | x8 | G4 G4 | x2 G2 x4 | x10 | ^C4 x4 | (E2 D2) x4 | %10
 A2 B2 x4 | ^F2 E2 x4 | x8 | x8 | x8 | x8 |] %16
V:3
 [C,G,]2 [E,G,]2 [C,G,]2 [A,,C]2 | (C2 A,2) [G,B,]4 | [F,C]2 [A,C]2 [F,C]2 [D,G,]2 | (A,4 G,4) | %4
 [A,,G,]2 [D,^F,]2 [G,,G,]2 [G,B,]2 | (B,2 C2) ([D,D]2 [C,E]2) | [B,,D]2 [E,B,]2 [C,A,]2 [D,A,C]2 | %7
 ([G,,-G,B,-]4 B,4) [F,,G,,F,]2 | G,2 A,2 [E,G,_B,]2 [D,B,]2 | A,4 E,4 | %10
 (A,2 B,2) [=F,A,-C]2 [E,A,C]2 | [F,B,]8 | [G,B,]2 [F,B,]2 [E,C]2 [D,D]2 | C4 ([F,D]2 [E,E]2) | %14
 [D,G]2 [F,F]2 [G,E]2 [G,,G,D]2 | [C,G,C]8 |] %16
V:4
 x8 | G,,4 x4 | x8 | C,8 | x8 | E,4 x4 | x8 | x4 [G,,-G,]2 x4 | G,2 A,2 x4 | %9
 (^C,2 B,,2) (A,,2 G,,2) | [^F,,^F,]4 x4 | (^D,2 ^C,2) (B,,2 A,,2) | x8 | (A,2 G,2) x4 | x8 | x8 |] %16

